X:12993
T:Penny Hill
C:Hector MacKenzie
R:jig
S:Tune of the Month, Dec. 2001, Sivler Apple News 8
B:The Cape Breton Fiddler
Q:300
L:1/8
M:6/8
K:EAeo
E2 e dBA|BEF G2 F|E2 e dB^c|dAG FED|!
E2 e dBA|BEF G2 F|Eee e2 f|1edB AFD:|2edB def||!
|:b2 e efe|bef g2 e|b2 e efg|fag fed|b2 e efe|!
bef g2 e|1bef edB|AdA FED:|2bea gfe|dAG FED|]!
